flaticon/interaction/stopwatch-4.svg

<svg xmlns="http://www.w3.org/2000/svg" width="32" height="32" viewBox="0 0 24 24">
    <path d="M 18.007812 14.304688 C 17.84375 14.023438 17.554688 13.859375 17.234375 13.859375 C 16.910156 13.859375 16.625 14.023438 16.460938 14.304688 L 11.722656 22.425781 C 11.558594 22.707031 11.558594 23.039062 11.71875 23.320312 C 11.882812 23.601562 12.171875 23.769531 12.496094 23.769531 L 21.972656 23.769531 C 22.296875 23.769531 22.585938 23.601562 22.746094 23.320312 C 22.910156 23.039062 22.90625 22.707031 22.746094 22.425781 Z M 22.054688 22.925781 C 22.042969 22.945312 22.019531 22.972656 21.972656 22.972656 L 12.496094 22.972656 C 12.449219 22.972656 12.425781 22.945312 12.414062 22.925781 C 12.402344 22.902344 12.390625 22.867188 12.414062 22.828125 L 17.152344 14.707031 C 17.175781 14.667969 17.210938 14.660156 17.234375 14.660156 C 17.257812 14.660156 17.292969 14.667969 17.316406 14.707031 L 22.054688 22.828125 C 22.078125 22.867188 22.066406 22.902344 22.054688 22.925781 Z M 22.054688 22.925781"/>
    <path d="M17.269531 20.570312C17.488281 20.570312 17.667969 20.394531 17.667969 20.171875L17.667969 16.972656C17.667969 16.75 17.488281 16.570312 17.269531 16.570312 17.046875 16.570312 16.867188 16.75 16.867188 16.972656L16.867188 20.171875C16.867188 20.390625 17.046875 20.570312 17.269531 20.570312zM16.988281 21.484375C16.90625 21.5625 16.867188 21.660156 16.867188 21.769531 16.867188 21.878906 16.910156 21.980469 16.984375 22.054688 17.058594 22.128906 17.164062 22.175781 17.269531 22.175781 17.371094 22.175781 17.476562 22.128906 17.550781 22.054688 17.625 21.980469 17.667969 21.878906 17.667969 21.769531 17.667969 21.664062 17.625 21.5625 17.550781 21.484375 17.394531 21.339844 17.132812 21.339844 16.988281 21.484375zM12.464844 14.164062C12.5 14.167969 12.539062 14.171875 12.574219 14.171875 12.953125 14.171875 13.3125 14.019531 13.582031 13.753906 13.878906 13.457031 14.027344 13.050781 13.996094 12.632812 13.960938 12.21875 13.75 11.835938 13.410156 11.589844L8.234375 7.847656C8.074219 7.730469 7.855469 7.75 7.71875 7.886719 7.578125 8.027344 7.5625 8.246094 7.675781 8.40625L11.421875 13.582031C11.667969 13.921875 12.046875 14.132812 12.464844 14.164062zM9.785156 9.953125L12.941406 12.238281C13.089844 12.347656 13.183594 12.511719 13.199219 12.695312 13.210938 12.878906 13.144531 13.058594 13.015625 13.1875 12.886719 13.316406 12.710938 13.382812 12.527344 13.367188 12.34375 13.355469 12.175781 13.261719 12.070312 13.113281zM12 .171875C11.777344.171875 11.601562.347656 11.601562.570312L11.601562 5.886719C11.601562 6.109375 11.777344 6.285156 12 6.285156 12.222656 6.285156 12.398438 6.109375 12.398438 5.886719L12.398438.976562C18.390625 1.1875 23.199219 6.128906 23.199219 12.171875 23.199219 13.558594 22.945312 14.914062 22.445312 16.207031 22.367188 16.414062 22.46875 16.644531 22.675781 16.726562 22.722656 16.742188 22.773438 16.75 22.820312 16.75 22.980469 16.75 23.132812 16.65625 23.191406 16.496094 23.726562 15.109375 24 13.65625 24 12.171875 24 5.554688 18.617188.171875 12 .171875zM9.296875 23.042969C4.292969 21.800781.800781 17.332031.800781 12.171875.800781 9.1875 1.960938 6.378906 4.066406 4.265625 4.222656 4.105469 4.222656 3.855469 4.066406 3.699219 3.910156 3.542969 3.65625 3.542969 3.5 3.699219 1.242188 5.964844 0 8.972656 0 12.171875 0 17.699219 3.742188 22.492188 9.105469 23.820312 9.136719 23.828125 9.167969 23.828125 9.203125 23.828125 9.382812 23.828125 9.542969 23.707031 9.589844 23.527344 9.640625 23.3125 9.511719 23.09375 9.296875 23.042969zM9.296875 23.042969"/>
</svg>

<svg xmlns="http://www.w3.org/2000/svg" width="32" height="32" viewBox="0 0 24 24">
    <path d="M18.008 14.305a.886.886 0 0 0-.774-.446.881.881 0 0 0-.773.446l-4.738 8.12a.89.89 0 0 0 .773 1.344h9.477a.88.88 0 0 0 .773-.449.883.883 0 0 0 0-.894zm4.047 8.62a.09.09 0 0 1-.082.048h-9.477a.09.09 0 0 1-.082-.047c-.012-.024-.023-.059 0-.098l4.738-8.121a.092.092 0 0 1 .082-.047c.024 0 .059.008.082.047l4.739 8.121c.023.04.011.074 0 .098zm0 0"/>
    <path d="M17.27 20.57a.398.398 0 0 0 .398-.398v-3.2a.401.401 0 1 0-.8 0v3.2c0 .219.179.398.402.398zm0 0M16.988 21.484a.402.402 0 0 0-.004.57c.075.075.18.122.286.122a.41.41 0 0 0 .398-.406.416.416 0 0 0-.117-.286c-.156-.144-.418-.144-.563 0zm0 0M12.465 14.164c.035.004.074.008.11.008a1.427 1.427 0 0 0 .836-2.582L8.233 7.848a.397.397 0 0 0-.515.039.403.403 0 0 0-.043.52l3.746 5.175c.246.34.625.55 1.043.582zm-2.68-4.21l3.156 2.284c.149.11.243.274.258.457a.638.638 0 0 1-.183.492.613.613 0 0 1-.489.18.608.608 0 0 1-.457-.254zm0 0M12 .172a.395.395 0 0 0-.398.398v5.317c0 .222.175.398.398.398a.395.395 0 0 0 .398-.398V.977c5.993.21 10.801 5.152 10.801 11.195 0 1.387-.254 2.742-.754 4.035a.404.404 0 0 0 .23.52.466.466 0 0 0 .145.023c.16 0 .313-.094.371-.254A11.96 11.96 0 0 0 24 12.172c0-6.617-5.383-12-12-12zm0 0M9.297 23.043A11.176 11.176 0 0 1 .8 12.172c0-2.985 1.16-5.793 3.265-7.906a.4.4 0 0 0-.566-.567A11.923 11.923 0 0 0 0 12.172c0 5.527 3.742 10.32 9.105 11.648a.396.396 0 0 0 .098.008.4.4 0 0 0 .387-.3.4.4 0 0 0-.293-.485zm0 0"/>
</svg>
